X: 38764
T: Struan And Frazer's
R: reel
M: 4/4
K: Bminor
|:f2 ef BBdB|feef Bffd|ecce AeeA|ccAe cdec|
f2 ef BBdB|feef Bffd|ecce Aeec|effA B2 de:|
fBBB aBBB|fBBa BBfd|ecce AeeA|ccBc ABce|
fBBB aBBB|fBBa BBfd|ecce Aeec|effA B2 de||
fBBa BBfB|fBBa BBfd|ecce AeeA|ccBc ABce|
fBBa BBfB|fBBa BBfd|ecce Aeec|effA B2 de||

